packages/kaspersky-hexa-ui-icons/src/iconsSVGs/24/BluetoothScan.svg

<svg width="24" height="24" viewBox="0 0 24 24" fill="none" xmlns="http://www.w3.org/2000/svg">
<path fill-rule="evenodd" clip-rule="evenodd" d="M7.55476 3.16795C7.2479 2.96338 6.85336 2.94431 6.5282 3.11833C6.20304 3.29235 6.00006 3.63121 6.00006 4V10L3.60006 8.2C3.15823 7.86863 2.53143 7.95817 2.20006 8.4C1.86869 8.84183 1.95823 9.46863 2.40006 9.8L5.33339 12L2.40006 14.2C1.95823 14.5314 1.86869 15.1582 2.20006 15.6C2.53143 16.0418 3.15823 16.1314 3.60006 15.8L6.00006 14V20C6.00006 20.3688 6.20304 20.7077 6.5282 20.8817C6.85336 21.0557 7.2479 21.0366 7.55476 20.8321L13.5548 16.8321C13.833 16.6466 14.0001 16.3344 14.0001 16C14.0001 15.6656 13.833 15.3534 13.5548 15.168L8.80283 12L13.5548 8.83205C13.833 8.64659 14.0001 8.33435 14.0001 8C14.0001 7.66565 13.833 7.35342 13.5548 7.16795L7.55476 3.16795ZM11.1973 8L8.00006 10.1315V5.86852L11.1973 8ZM11.1973 16L8.00006 13.8685V18.1315L11.1973 16Z" fill="black"/>
<path d="M17.3544 7.76359L17.3582 7.76694C17.3646 7.77264 17.3776 7.78442 17.3963 7.80226C17.4339 7.838 17.4939 7.89777 17.5693 7.98147C17.7202 8.14919 17.9302 8.41049 18.1426 8.7645C18.565 9.46859 19.0001 10.5428 19.0001 12C19.0001 13.4572 18.565 14.5314 18.1426 15.2355C17.9302 15.5895 17.7202 15.8508 17.5693 16.0185C17.4939 16.1022 17.4339 16.162 17.3963 16.1977C17.3776 16.2156 17.3646 16.2274 17.3582 16.2331L17.3543 16.2364C16.9351 16.5908 16.8798 17.2178 17.2318 17.6402C17.5764 18.0537 18.1841 18.1186 18.6075 17.7944C18.6592 17.7548 18.6992 17.7188 18.7757 17.646C18.8475 17.5776 18.9437 17.4811 19.0559 17.3565C19.2799 17.1075 19.57 16.7438 19.8576 16.2645C20.4351 15.3019 21.0001 13.8762 21.0001 12C21.0001 10.1238 20.4351 8.69808 19.8576 7.73551C19.57 7.25618 19.2799 6.89248 19.0559 6.64354C18.9437 6.51889 18.8475 6.42242 18.7757 6.35399C18.7397 6.31975 18.7098 6.29247 18.6869 6.27212C18.6595 6.24781 18.6318 6.22395 18.6025 6.2019C18.1794 5.88256 17.5749 5.94818 17.2318 6.35982C16.8798 6.78224 16.9351 7.40917 17.3544 7.76359Z" fill="black"/>
<path d="M14.168 14.5547C13.8644 14.0993 13.9836 13.4855 14.433 13.1763L14.437 13.1733C14.4462 13.1663 14.4656 13.151 14.4919 13.1276C14.5454 13.08 14.6224 13.0036 14.7001 12.9C14.8532 12.6958 15.0001 12.4012 15.0001 12C15.0001 11.5988 14.8532 11.3042 14.7001 11.1C14.6224 10.9964 14.5454 10.92 14.4919 10.8724C14.4656 10.849 14.4462 10.8337 14.437 10.8267L14.433 10.8237C13.9836 10.5145 13.8644 9.90067 14.168 9.4453C14.4629 9.00298 15.0492 8.87137 15.5025 9.13535C15.5532 9.16486 15.6018 9.19978 15.6491 9.23582C15.6946 9.27048 15.7533 9.31769 15.8207 9.37759C15.9547 9.49671 16.1277 9.67025 16.3001 9.9C16.6469 10.3625 17.0001 11.0678 17.0001 12C17.0001 12.9322 16.6469 13.6375 16.3001 14.1C16.1277 14.3298 15.9547 14.5033 15.8207 14.6224C15.7533 14.6823 15.6946 14.7295 15.6491 14.7642C15.6263 14.7815 15.6067 14.7959 15.5908 14.8071C15.5715 14.8207 15.5521 14.8341 15.5322 14.8467C15.0751 15.1343 14.4694 15.0067 14.168 14.5547Z" fill="black"/>
</svg>

<svg xmlns="http://www.w3.org/2000/svg" width="24" height="24" fill="none" viewBox="0 0 24 24"><path fill="#000" fill-rule="evenodd" d="M6.5281 3.1183a1 1 0 0 1 1.0266.0497l6 4a1 1 0 0 1 0 1.664L8.8027 12l4.752 3.168a.9998.9998 0 0 1 0 1.6641l-6 4A1.0002 1.0002 0 0 1 6 20v-6l-2.4 1.8c-.4418.3314-1.0686.2418-1.4-.2s-.2418-1.0686.2-1.4L5.3333 12 2.4 9.8c-.4418-.3314-.5314-.9582-.2-1.4s.9582-.5314 1.4-.2L6 10V4a1 1 0 0 1 .5281-.8817M8 10.1315 11.1972 8 8 5.8685zm9.3543-2.368.0038.0034a2 2 0 0 1 .0382.0354c.0375.0357.0976.0955.1729.1792.151.1677.3609.429.5733.783C18.565 9.4685 19 10.5428 19 12s-.435 2.5314-.8575 3.2355c-.2124.354-.4223.6153-.5733.783a3.3 3.3 0 0 1-.1729.1792 2 2 0 0 1-.0382.0354l-.0038.0033c-.4193.3544-.4745.9814-.1225 1.4038.3446.4135.9522.4784 1.3757.1542.0517-.0396.0916-.0756.1681-.1484a5.3 5.3 0 0 0 .2802-.2895c.224-.249.5141-.6127.8017-1.092C20.435 15.3019 21 13.8762 21 12s-.565-3.302-1.1425-4.2645c-.2876-.4793-.5777-.843-.8017-1.092a5.3 5.3 0 0 0-.2802-.2895 4 4 0 0 0-.0888-.0819 1.4 1.4 0 0 0-.0843-.0702c-.4232-.3193-1.0277-.2537-1.3707.158-.352.4223-.2967 1.0493.1225 1.4037m-3.1864 6.7912c-.3035-.4554-.1843-1.0692.265-1.3784l.004-.003a1 1 0 0 0 .055-.0457A1.56 1.56 0 0 0 14.7 12.9c.1531-.2042.3-.4988.3-.9s-.1469-.6958-.3-.9a1.56 1.56 0 0 0-.2081-.2276 1 1 0 0 0-.055-.0457l-.004-.003c-.4493-.3092-.5685-.923-.265-1.3784.2949-.4423.8812-.574 1.3345-.31.0507.0296.0993.0645.1466.1005a3 3 0 0 1 .1716.1418c.134.1191.3071.2927.4794.5224.3469.4625.7 1.1678.7 2.1s-.3531 1.6375-.7 2.1a3.56 3.56 0 0 1-.4794.5224 3 3 0 0 1-.1716.1418 2 2 0 0 1-.0582.0429 1.4 1.4 0 0 1-.0587.0396c-.4571.2876-1.0628.16-1.3642-.292M8 13.8685 11.1972 16 8 18.1315z"/></svg>
